X: 1
T: Rothiemurchus Rant
C: Robert Bremner (c.1713-89)
O:
R: strathspey, rant
S: Fiddle Hell Online 2021-11-7
Z: 2022 John Chambers <jc:trillian.mit.edu>
M: 4/4
L: 1/8
K: C
"^A"|: F/| E>D E<C E<G (3GAB | c>G A>G c>G A<c | E>D E<C E<G G>c | (3ABc G>c E<D D> :|
"^B"|: f | e2 d>c d<e d>A | c>d e>d e/d/c/B/ c>G | A2 a>g e2 d>c | (3ABc G>c E<D D> :|
"^C"|: f | e<g g>a g>a g<d | e>a a>b a>b a<g | e<g d>e c>d e<c | A<a g>e d2 d> :|
"^D"[| f | e2 d>c d<e a2 | g<e e>d c>A A<c | G>A c>d e2 d>c | (3ABc G>c E<D D> ||
    || f | e2 d>c d<e a2 | g<e e>d c<A (3Aeg | a>e g<d e2 d>c | (3ABc G>c E<D D> |]
